X: 1
T: Searching For Lambs
R: waltz
M: 3/4
L: 1/8
K: Gmin
D2 G2 A2|B2 A2 G2|F2 G2 HD2|A2 B2 c2|d2 c2 A2|c4 A2|
[M:5/4] B2 c2 d2 c2 BA|G2 A2 B2 A2 G2|F2 G2 D2 G2 F2|[M:3/4] G6||

